!!!id: BC002
!!!page: 6-7
!!!COM: Anonymous
!!!LYR: Anonymous
!!!COA: Chanson populaire
!!!ENC:
!!!PTR@@FR: Les 100 plus belles chansons
!!!OTL@@FR: Le petit mousse
!!!PUB: La Bonne Chanson, inc.
!!!PDT: 2011
!!!YEM: On ne peut reproduire, enregistrer ou diffuser en tout ou en partie le présent ouvrage, sous quelque procédé que ce soit, électronique, mécanique, photographique, sonore, magnétique ou autre, sans avoir obtenu au préalable l'autorisation écrite de l'éditrice.
!!!SMA: 2012 Bibliothèque nationale du Québec; Biblothèque nationale du Canada
!!!AGN-Chamberland: [maman,chez-soi natal,marin]
!!!AGN-Laforte: strophique
!!!AGN-refrain: final
!!!AGN-metre: 4:6(8); R:2r(8)
!!!AGN-rhyme: mixtes (v:1-4:{abab}; v:5-6:{cd} across)
**kern	**text	**text	**text	**text
*clefG2	*	*	*	*
*k[b-]	*	*	*	*
*F:	*	*	*	*
!!LO:TX:a:B:t=Moderato
*M9/8	*	*	*	*
*	*v:1	*v:2	*v:3	*v:4
*	*pline:1	*pline:7	*pline:13	*pline:19
{{8c	Sur	Quand	J'é-	Ain-
4c	le	je	-tais	-si
8f	grand	par-	heu-	chan-
=1	=1	=1	=1	=1
[4.a	mât	-tis,	-reux,	-tait
4a]	.	.	.	.
8g	d'u-	ma	pe-	le
4f	-ne	bon-	-ti-	pe-
8a	cor-	-ne	-te	-tit
=2	=2	=2	=2	=2
4.c	-vet-	mè-	mè-	mous-
4c	-te,	-re	-re,	-se,
*	*pline:2	*pline:8	*pline:14	*pline:20
8f	Un	Me	Quand	Sur
4f	pe-	dit:	je	le
8e	-tit	"Tu	vi-	grand
!!LO:PB:g=original
=3	=3	=3	=3	=3
[4.g	mouss[e]	vas	-vais	mât,
4g]	.	.	.	.
8f	un	sous	au-	au
4e	soir	d'au-	-près	bruit
8g	chan-	-tres	de	des
=4	=4	=4	=4	=4
[4.f	-tait;	cieux;	toi.	flots;
4f]	.	.	.	.
*	*pline:3	*pline:9	*pline:15	*pline:21
8c	Il	Ton	Pour-	Et
4c	re-	cher	-quoi	dans
8f	-di-	vil-	faut--	la
=5	=5	=5	=5	=5
[4.a	-sait,	-lage	il	nuit,
4a]	.	.	.	.
8g	l'âm[e]	et	que	sa
4f	in-	ta	la	voix
8a	-qui-	chau-	mi-	si
!!LO:PB:g=original
=6	=6	=6	=6	=6
4.c	-è-	-miè-	-sè-	dou-
4c	-te,	-re	-re	-ce
*	*pline:4	*pline:10	*pline:16	*pline:22
8f	Ces	Se-	M'ait	Sem-
4f	mots	-ront	é-	-blait
8e	qu'au	bien-	-loi-	mon-
=7	=7	=7	=7	=7
[4.g	loin	-tôt	-gné	-ter
4g]	.	.	.	.
8f	le	loin	de	comm[e]
4e	vent	de	no-	un
8g	por-	tes	-tre	san-
=8	=8	=8	=8	=8
[4.f	-tait:	yeux.	toit?	-glot.
4f]	.	.	.	.
*	*pline:5	*pline:11	*pline:17	*pline:23
8a	Qui	Quand	Bien-	Sou-
4a	me	tu	-tôt,	-dain,
8a	ren-	se-	j'es-	on
!!LO:PB:g=original
=9	=9	=9	=9	=9
[4.a	-dra	-ras	-pè-	crie
4a]	.	.	.	.
8g	ton	sur	-re,	a-
4f	doux	le	un	-vec
8e	sou-	na-	jour	dé-
=10	=10	=10	=10	=10
4.e	-ri-	-vi-	va	-li-
4d	-re,	-re,	luir[e],	-re:
*	*pline:6	*pline:12	*pline:18	*pline:24
8g	Heu-	Tu	Où	"Voi-
4g	-reu-	m'é-	ton	-ci
8a	-se	-cri-	en-	le
=11	=11	=11	=11	=11
[4.g	mèr[e],	-ras	-fant	port,
4g]	.	.	.	.
8f	ou-	sou-	te	har-
4e	-vrant	-vent,	re-	-di,
8d	tes	mon	-vien-	les
!!LO:PB:g=original
=12	=12	=12	=12	=12
[4.c	bras?"	gars!"	-dra.	gars!"
4c]	.	.	.	.
*>Refrain	*>Refrain	*>Refrain	*>Refrain	*>Refrain
*	*refrain	*	*	*
*	*italic	*	*	*
*	*pline:R1	*	*	*
!!LO:TX:a:B:t=Refrain
==13	==13	=13	==13	==13
*^	*	*	*	*
8a	8f	Fi-	.	.	.
4a	4f	-lez,	.	.	.
*	*	*bis	*	*	*
8b-	8g	fi-	.	.	.
=14	=14	=14	=14	=14	=14
[4cc.	[4a.	-lez	.	.	.
*	*	*Xbis	*	*	*
4cc]	4a]	.	.	.	.
8a	8f	ô	.	.	.
4b-	4g	mon	.	.	.
8cc	8a	na-	.	.	.
=15	=15	=15	=15	=15	=15
4.dd	4.b-	-vi-	.	.	.
4dd	4b-	-re,	.	.	.
*	*	*pline:R2	*	*	*
8dd	8b-	Car	.	.	.
4dd	4b-	le	.	.	.
8dd	8b-	bon-	.	.	.
!!LO:PB:g=original
= 16	=16	=16	= 16	= 16	= 16
[4cc.	[4a.	-heur	.	.	.
4cc]	4a]	.	.	.	.
8a	8f	m'at-	.	.	.
4b-	4g	-tend	.	.	.
8cc	8a	là--	.	.	.
=17	=17	=17	=17	=17	=17
[4a.	[4f.	bas;	.	.	.
4a]	4f]	.	.	.	.
*	*	*pline:R1r	*	*	*
8a	8f	Fi-	.	.	.
4a	4f	-lez,	.	.	.
*	*	*bis	*	*	*
8b-	8g	fi-	.	.	.
=18	=18	=18	=18	=18	=18
[4cc.	[4a.	-lez	.	.	.
*	*	*Xbis	*	*	*
4cc]	4a]	.	.	.	.
8a	8f	ô	.	.	.
4b-	4g	mon	.	.	.
8cc	8a	na-	.	.	.
!!LO:PB:g=original
=19	=19	=19	=19	=19	=19
4dd.	4b-.	-vi-	.	.	.
4dd	4b-	-re,	.	.	.
*	*	*pline:R2r	*	*	*
8dd	8b-	Car	.	.	.
4ff	4dd	le	.	.	.
8dd	8b-	bon-	.	.	.
=20	=20	=20	=20	=20	=20
[4cc.	[4a.	-heur	.	.	.
4cc]	4a]	.	.	.	.
8f	8f	m'at-	.	.	.
4a	4c	-tend	.	.	.
8g	8B-	là--	.	.	.
=21	=21	=21	=21	=21	=21
[4f.	[4A.	bas!	.	.	.
4f]	4A]	.	.	.	.
*v	*v	*	*	*	*
*	*Xitalic	*	*	*
*	*Xrefrain	*	*	*
==	==	==	==	==
*-	*-	*-	*-	*-
!!!EED: Ève Poudrier
!!!EEV: 2026/04/16
!!Editorial Note: Nouvelle avec paroles plus conformes aux exigences du rythme, arrangées par La Bonne Chanson. La reproduction de ce texte est donc interdite.
